!!!COM: Charles Gounod
!!!CNT: Francais
!!!TXO: Francais
!!!OTL: Ni L'or ni la Grandeur
!!!ODT: 1865/
!!!LYR: Jean de la Fontaine
!!!ENC: Jacob Pegg
!!!YOR: Romantic French Song 1830-1870 -David Tunley, ed.,
!!!YOR: New York: Garland Publishing, Inc., 1995, Vol. 5
!!NB: Vocal melody and text only encoded.
!!NB: First instance of melodic material only encoded.
**kern	**silbe
*clef G2	*
*k[f#c#]	*
*M3/4	*
*MM[larghetto]	*
!!created: 6/17/03 22:29
!!proofed and posted: 7/21/03 23:55
=1	=1
4r	.
4r	.
8r	.
{8a	{Ni
=2	=2
4.dd	l'or
8a	ni
8f#	la
8d	gran-
=3	=3
[2b	-deur
8b]}	|}
8r	.
=4	=4
{8e	{ne
8f#	nous
4g	ren-
8c#	-dent
8e	heu-
=5	=5
[4d	-reux;
8d]}	|}
8r	.
4r	.
=6	=6
{4f#	{Ces
8f#	deux
8f#	di-
8.f#	-vi-
16g#	-ni-
=7	=7
[4e#	-te/s
8e#]}	|}
8r	.
{4g#	{n'ac-
=8	=8
4.cc#	-cor-
8b	-dent
8a	a\
8g#	nos
=9	=9
[2a	voeux
8a]}	|}
8r	.
=10	=10
{8f#	{Que
8f#	des
4cc#	biens
8b	peu
8a	cer-
=11	=11
[2g#	-tains,
8g#]}	|}
8r	.
=12	=12
{8a#	{qu'un
8a#	plai-
4ee	-sir
8dd	peu
8cc#	tran-
=13	=13
4cc#	-quil-
4b}	-le:}
4r	.
=14	=14
{8.gn	{Des
16a	sou-
4b	-cis
8ccn	de/-
8dd	-vo-
=15	=15
2.dd#	-rants
=16	=16
4cc#	c'est
8a	l'e/-
8f#	-ter-
8g#	-nel
8a	a-
=17	=17
(4c#	-si-
2g#)	|
=18	=18
4f#}	-le;}
4r	.
4r	.
=19	=19
4r	.
4r	.
{4en	{Le
=20	=20
4.a	sa-
8a	-ge y
8b	vit,
8cc#	en
=21	=21
[4e	paix,
8e]	|
8r	.
4cc#	er-
=22	=22
4.ee	-rant
8a	par-
8b	-mi
8e	les
=23	=23
[2a	bois
8a]}	|}
8r	.
=24	=24
{8.a	{Il
16b	re-
4cc#	-gar-
8a	-de a\
8f#	ses
=25	=25
[2d	pieds
8d]}	|}
8r	.
=26	=26
{4b	{les
8cc#	fa-
8dd	-vo-
8b	-ris
8g#	des
=27	=27
[4e	Rois;
8e]}	|}
8r	.
{4cc#	{Il
=28	=28
4.ee	lit
8e	au
8.e	front
16e	de
=29	=29
[4e	ceux
12e]	|
12e	qu'un
12f#	vain
12gn	luxe
12e	en-
12b	-vi-
=30	=30
4b	-ron-
4a#}	-ne}
4r	.
=31	=31
{4b	{Que
8b	la
8b	for-
8b	-tu-
8b	-ne
=32	=32
[4ccn	vend
12ccn]	|
12cn	ce
12d	qu'on
12e	croit
12f#	qu'el-
12g	-le
=33	=33
2.f#	don-
=34	=34
4d}	-ne}
4r	.
4r	.
=35	=35
{4f#	{Ap-
8.f#	-pro-
16f#	-che~
8.f#	~t~il
16f#	du
=36	=36
[4g	but,
8g]}	|}
8r	.
4r	.
=37	=37
{8.g	{quit-
16g	-te~
4g	~t~il
8.g	ce
16e	se/-
=38	=38
[2cc#	-jour,
8cc#]}	|}
8r	.
=39	=39
{8.dd	{Rien
16a	ne
4a	trou-
8.f#	-ble
16e	sa
=40	=40
[4d	fin:
8d]}	|}
8r	.
4r	.
=41	=41
{8.g	{c'est
16a	le
4b	soir
(12b	d'un
12cc#)	|
12dd	beau
=42	=42
2.ee}	jour}
=43	=43
{8.ffn	{Rien
16ccn	ne
4ccn	trou-
8.a	-ble
16fn	sa
=44	=44
[2dd	fin:
8dd]}	|}
8r	.
=45	=45
{8.dd	{rien
16a	ne
4a	trou-
8.f#	-ble
16d	sa
=46	=46
[2b	fin:
8b]}	|}
8r	.
=47	=47
{8.b	{c'est
16cc#	le
2b	soir
=48	=48
8.b	d'un
16cc#	beau
[4b	jour.
8b]}	|}
8r	.
=49	=49
{2a	{d'un
4a	beau
=50	=50
[2.dd	jour.
=51	=51
4dd]}	|}
4r	.
4r	.
*-	*-
